X:24
T:Gamal Reinlender
O:Norway
A:
C:Traditional
L:1/16
M:2/4
Q:1/8=160
R:Reinlender/Turdans
K:D
% %rightmargin 11.5cm
"Intro"|\
"Em"G>FE>F "A7"G>EC>E | "D".D2D2 D4 ||
% %rightmargin 2.78cm
%P:A
[K:Dm]|: "Dm"D>EF>G A2A2 | "Gm"A>BG>B "Dm"A2F2 | "Gm"F>EG>E "Dm"F2D>F
[1"A7"E>D^C>E "Dm"D4 :|[2"A7"E>D^C>E "Dm"D2^fe ||
%P:B
[K:D]"D"d2d2 "E7"d2ed | "A7"c2A2 A4 | "Em"G>FE>F "E7"G>AB>c | "A7"c2A2 A2a>g |
"D"f2d2 "E7"d2e>d | "A7"c2A2 A4 | "Em"G>FE>F "A7"G>EC>E | "D".D2D2 D4 ||
%P:C
[K:Dm]"Dm".d2d2 "Gm"c3B | "Dm"A^GAB AFDE | .F2F2 "Gm"GABG | "A7".A2A2 =B2^c2 |
"Dm".d2d2 "Gm"c3B | "Dm"A^GAB AFDE | F2F2 "A7"ED^CE | "Dm".D2D2 D4 |]

